X:1
T:The Story Never Old
T:Charles Hutchinson Gabriel, 1906
T:The Story Never Old
T:Public Domain
T:Public Domain
C:Charles Hutchinson Gabriel, 1906
Z:Public Domain
%%score ( 1 2 ) ( 3 4 )
L:1/8
M:3/4
K:Eb
V:1 treble 
V:2 treble 
V:3 bass 
V:4 bass 
V:1
 E2 | [EG]3 [EG] [EF]E | [Ec][EB] [EB]2 (EF) | [EG]3 [B,E] [B,F][B,F] | [B,E]4 [B,E]2 | %5
w: 1.~The|est stor- y told|earth, Or heard in *|a- bove, Is told|of Je-|
w: 2.~He|up- on Him- self|guilt Of all my *|and thine, And on|the cross|
w: 3.~“There|no o- ther good|nough To pay the *|of sin; He on-|ly could|
w: 4.~“O|ly, dear- ly hath|loved And we must *|Him, too, And trust|in His|
 [EG]3 [EG] [EF]E | [Ec][EB] [EB]2 (Bc) | [Fd]3 [Fd] [Ec][Ec] | [DB]3 || %9
w: sus and His birth,|Je- sus and His *|||
w: of Cal- va- ry|paid thy debt and *|O stor- y nev-|er|
w: un- lock the gate|Heav’n and let us *|||
w: re- deem- ing love,|try His works to *|||
[M:4/4]"^Refrain" [AB][Ge][Gd] | c>A (F2 F)[FA][Ae][Ad] | c>G (E2 E)[EG][EB]E | B>D [DB]2 (z c)Fc | %13
w: ||||
w: old, The sweet-|est ev- er * told! Un- til|of gold swing * back for me;|o’er and o’er, * And then|
w: ||||
w: ||||
 (E2 EF [GB])[AB][Ge][Gd] | c>A (F2 F)[FA] | [Ae][Ad] | c>G (E2 E)[EG][EB]E | %17
w: ||||
w: der * * * shore It still|ev- er- more * my|be. *||
w: ||||
w: ||||
 B>D (D2 D)[DA][DG][B,F] | [B,E]6 |] %19
w: ||
w: ||
w: ||
w: ||
V:2
 E2 | x5 E | x4 E2 | x6 | x6 | x5 E | x4 G2 | x6 | x3 ||[M:4/4] x3 | A2 A3 x3 | G2 G3 E x2 | %12
w: sweet-|on|Heav’n|||Of|love.||||||
w: took|the|sins|||He|mine.||||the gates|I’ll tell it|
w: was|e-|price|||Of|in.”||||||
w: dear-|He|love|||And|do.”||||||
 D2 x/ (D2 D2) x3/2 | B4- x4 | A2 A3 x | x2 | G2 G3 E x2 | D2 B3 x3 | x6 |] %19
w: |||||||
w: on yon- *|for-|song shall|||||
w: |||||||
w: |||||||
V:3
 [E,G,]2 | [E,B,]3 [E,B,] [E,A,][E,G,] | [E,A,][E,G,] [E,G,]2 ([G,,B,][A,,C]) | %3
w: ~|~ ~ ~ ~|~ ~ ~ ~ *|
 [B,,B,]3 [B,,G,] [B,,A,][B,,A,] | [E,G,]4 [E,G,]2 | [E,B,]3 [E,B,] [E,A,][E,G,] | %6
w: ~ ~ ~ ~|~ ~|~ ~ ~ ~|
 [E,A,][E,G,] [E,G,]2 [E,B,]2 | [F,B,]3 [F,B,] [F,B,][F,=A,] | [B,,B,]3 ||[M:4/4] B,[E,B,][E,B,] | %10
w: ~ ~ ~ ~|~ ~ ~ ~|~|O stor- y|
 [F,D]2 [B,D]2 [B,,D][B,,D]B,[B,D] | (EB,) [B,,B,]2 [E,B,][E,B,][G,B,][_G,B,] | %12
w: er old, The sweet- est ev-|told! * Un- til the gates of|
 [F,A,]2 [B,,A,]2 [F,A,]2 [A,B,]2 | [E,G,]2 (G,B,) [E,E][B,D][E,B,][E,B,] | %14
w: swing back for me;|I’ll tell * it o’er and o’er,|
 [F,D]2 [B,D]2 [B,,D][B,,D] | [B,D][B,D] | (EB,) [B,,B,]2 [E,B,][E,B,][G,B,][_G,B,] | %17
w: then on yon- der|shore, It|still * for- ev- er- more my|
 [F,A,]2 [B,,A,]2 [F,A,][F,C][B,,B,][B,,A,] | [E,G,]6 |] %19
w: shall be. * * * *||
V:4
 x2 | x6 | x6 | x6 | x6 | x6 | x6 | x6 | x3 ||[M:4/4] B, x2 | x6 B, x | E,2 x6 | x8 | x2 B,2 x4 | %14
w: |||||||||nev-|er|gold||And|
 x6 | x2 | E,2 x6 | x8 | x6 |] %19
w: ||song|||

